img/bank/img-4.svg

<svg width="36" height="35" viewBox="0 0 36 35" fill="none" xmlns="http://www.w3.org/2000/svg">
<rect y="0.996155" width="36" height="34" rx="11" fill="url(#paint0_linear)"/>
<path d="M7.56 23.7022L8.848 23.4922V13.3002L7.56 13.1042V12.7962H11.956C13.3373 12.7962 14.364 13.0902 15.036 13.6782C15.708 14.2662 16.044 15.1155 16.044 16.2262C16.044 17.3368 15.708 18.1862 15.036 18.7742C14.364 19.3622 13.3373 19.6562 11.956 19.6562H10.388V23.4922L11.676 23.7022V23.9962H7.56V23.7022ZM11.76 19.3202C13.4867 19.3202 14.35 18.3822 14.35 16.5062V15.9462C14.35 14.0795 13.4867 13.1462 11.76 13.1462H10.388V19.3202H11.76ZM22.9543 24.1362L18.7823 13.3002V23.1422L20.1263 23.7022V23.9962H17.1303V23.7022L18.4463 23.1422V13.3002L17.1583 13.1042V12.7962H20.2523L23.7663 21.7842L27.3503 12.7962H30.1783V13.1042L28.8903 13.3002V23.4922L30.1783 23.7022V23.9962H26.0623V23.7022L27.3503 23.4922V13.7202L23.2063 24.1362H22.9543Z" fill="white"/>
<defs>
<linearGradient id="paint0_linear" x1="13" y1="0.996155" x2="36" y2="34.9962" gradientUnits="userSpaceOnUse">
<stop stop-color="#FA5645"/>
<stop offset="1" stop-color="#C61908"/>
</linearGradient>
</defs>
</svg>

<svg width="36" height="35" fill="none" xmlns="http://www.w3.org/2000/svg"><rect y=".996" width="36" height="34" rx="11" fill="url(#paint0_linear)"/><path d="M7.56 23.702l1.288-.21V13.3l-1.288-.196v-.308h4.396c1.381 0 2.408.294 3.08.882.672.588 1.008 1.438 1.008 2.548s-.336 1.96-1.008 2.548c-.672.588-1.699.882-3.08.882h-1.568v3.836l1.288.21v.294H7.56v-.294zm4.2-4.382c1.727 0 2.59-.938 2.59-2.814v-.56c0-1.867-.863-2.8-2.59-2.8h-1.372v6.174h1.372zm11.194 4.816L18.782 13.3v9.842l1.344.56v.294H17.13v-.294l1.316-.56V13.3l-1.288-.196v-.308h3.094l3.514 8.988 3.584-8.988h2.828v.308l-1.288.196v10.192l1.288.21v.294h-4.116v-.294l1.288-.21V13.72l-4.144 10.416h-.252z" fill="#fff"/><defs><linearGradient id="paint0_linear" x1="13" y1=".996" x2="36" y2="34.996" gradientUnits="userSpaceOnUse"><stop stop-color="#FA5645"/><stop offset="1" stop-color="#C61908"/></linearGradient></defs></svg>
